X:1
T:Studenter-Balvise
T:Studenter-Balvise
T:Halfdan Kjerulf
C:Halfdan Kjerulf
%%score [ 1 2 3 4 ]
L:1/8
Q:1/4=82
M:6/8
K:Eb
V:1 treble-8 nm="T1"
V:2 treble-8 nm="T2"
V:3 bass nm="B1"
V:4 bass nm="B2"
V:1
"^Con moto"!mf! B | e e{/g} f e e B | e e{/g} f e e e | e e{/g} f e e{/g} f | e3 f3 | %5
w: Vor|flyg- ti- ge Lyst, mens i|Dan- sen vi træ- de, gjen-|ly- der i Stren- ge- nes|Klang; men|
 g2 f (e>d) c |!>(! g3/2 g/ f!>)! f e d |!<(! c c c!<)! e e f |!>(! d3- d2!>)!!p! d | d2 ^c c2 d | %10
w: Hjer- tets Væld _ af|dy- be- re Glæ- de vil|hæ- ves og to- ne i|Sang. _ Med|Vaa- rens Röst vor|
 d2 ^c c d f | (fe) d e g f | (fe) d e g f | d3/2 d/ ^c d2 c | d3"^ten." f3 | %15
w: Kvad vi sjun- ge, thi|Vaar _ har To- ner paa|Fug- * lens Tun- ge, de|hil- ses og föl- ges|ad, og|
!<(! f3/2 f/ =e!<)! f3/2 f/ e |!>(! (f3 _g2)!>)!!<(! B!<)! | g g{/b} a g g!mf! f | %18
w: her til den fa- gre- ste|Rad _ af|Ro- ser og Lil- jer, af|
 e e{/g} f!<(! e e f!<)! | e3 d2 d | e6- | e3- e2 (!>!g/f/) | e3 (d>c) d | e3- !fermata!e2 |] %24
w: Ro- ser og Lil- jer vi|brin- ge vort|Kvad,|_ _ vi _|bring- ge _ vort|Kvad. _|
V:2
!mf! B | G B B B B B | G c d c c _d | c c _d c c d | c3 =d3 | d2 d (c>=B) c | %6
w: Vor|flyg- ti- ge Lyst, mens i|Dan- sen vi træ- de, gjen-|ly- der i Stren- ge- nes|Klang; men|Hjer- tets Væld _ af|
!>(! c3/2 c/ c!>)! B =A B |!<(! B B B!<)! B (=A/G/) A |!>(! B3- B2!>)!!p! B | B2 =A A2 B | %10
w: dy- be- re Glæ- de vil|hæ- ves og to- ne _ i|Sang. _ Med|Vaa- rens Röst vor|
 B2 =A A B B | =A2 A A A A | =A2 A A A A | B3/2 B/ =A B2 A | B3"^ten." d3 | %15
w: Kvad vi sjun- ge, thi|Vaar har To- ner paa|Fug- lens Tun- ge, de|hil- ses og föl- ges|ad, og|
!<(! d3/2 d/ ^c!<)! d3/2 d/ c |!>(! d3- d2!>)!!<(! B!<)! | e e d e e!mf! d | c c =B!<(! c c c!<)! | %19
w: her til den fa- gre- ste|Rad _ af|Ro- ser og Lil- jer, af|Ro- ser og Lil- jer vi|
 (BcB AB) A | (G3 _d3 | c3 _c2) !>!c | (B=cB) (AB) A | G3- !fermata!G2 |] %24
w: brin- * * ge _ vort|Kvad, _|_ _ vi|brin- * * ge _ vort|Kvad. _|
V:3
!mf! G, | E, G, A, G, G, F, | E, G, A, G, G, G, | A, A, G, A, A, G, | A,3 C3 | =B,2 B, G,2 G, | %6
w: Vor|flyg- ti- ge Lyst, mens i|Dan- sen vi træ- de, gjen-|ly- der i Stren- ge- nes|Klang; men|Hjer- tets Væld af|
!>(! =A,3/2 A,/ A,!>)! B, F, F, |!<(! G, G, G,!<)! F, F, F, |!>(! F,2!>)!!p! F, F,3- | %9
w: dy- be- re Glæ- de vil|hæ- ves og to- ne i|Sang. Med Vaa-|
 F,2 F, F,2 F, | F,2 F, F, F, F, | F,2 F, F, F, F, | F,2 F, F, F, F, | F,3/2 F,/ F, F,2 F, | %14
w: * rens Röst vor|Kvad vi sjun- ge, thi|Vaar har To- ner paa|Fug- lens Tun- ge, de|hil- ses og föl- ges|
 F,3"^ten." _A,3 |!<(! A,3/2 A,/ G,!<)! A,3/2 A,/ G, |!>(! A,3- A,2!>)!!<(! B,!<)! | %17
w: ad, og|her til den fa- gre- ste|Rad _ af|
 B, B, B, B, B,!mf! A, | G, G, G,!<(! G, G, A,!<)! | (G,A,G, F,G,) F, | (E,3 G,3 | %21
w: Ro- ser og Lil- jer, af|Ro- ser og Lil- jer vi|brin- * * ge _ vort|Kvad, _|
 A,3- A,2) !>!A, | (G,A,G,) (F,G,) F, | E,3- !fermata!E,2 |] %24
w: _ _ vi|brin- * * ge _ vort|Kvad. _|
V:4
!mf! E, | E, E, E, E, E, D, | C, C, C, C, C, B,, | A,, A,, A,, A,, A,, A,, | A,,3 A,3 | %5
w: Vor|flyg- ti- ge Lyst, mens i|Dan- sen vi træ- de, gjen-|ly- der i Stren- ge- nes|Klang; men|
 G,2 G, (C,>D,) E, |!>(! E,3/2 E,/ E,!>)! D, C, B,, |!<(! E, E, =E,!<)! F, F,, F,, | %8
w: Hjer- tets Væld _ af|dy- be- re Glæ- de vil|hæ- ves og to- ne i|
!>(! B,,3- B,,2!>)!!p! B,, | B,,2 F,, F,,2 B,, | B,,2 F,, F,, B,, D, | (D,C,) B,, C, F,, D, | %12
w: Sang. _ Med|Vaa- rens Röst vor|Kvad vi sjun- ge, thi|Vaar _ har To- ner paa|
 (D,C,) =B,, C, F,, D, | B,,3/2 B,,/ F,, B,,2 F,, | B,,3"^ten." B,,3 | %15
w: Fug- * lens Tun- ge, de|hil- ses og föl- ges|ad, og|
!<(! B,,3/2 B,,/ B,!<)! B,,3/2 B,,/ B, |!>(! B,,3- B,,2!>)!!<(! B,,!<)! | %17
w: her til den fa- gre- ste|Rad _ af|
 E, E, B,, E, E,!mf! =B,, | C, C, G,,!<(! C, C, A,,!<)! | B,,3 B,,2 B,, | (C,3 B,,3 | %21
w: Ro- ser og Lil- jer, af|Ro- ser og Lil- jer vi|brin- ge vort|Kvad, _|
 A,,3- A,,2) !>!A,, | B,,3 B,,2 B,, | [E,,B,,]3- !fermata![E,,B,,]2 |] %24
w: _ _ vi|brin- ge vort|Kvad. _|

